Obsidian-SemiLight/actions/16s/games-hint.svg

<svg viewBox="0 0 16 16" xmlns="http://www.w3.org/2000/svg"><path d="m8 2v.0019531c-1.9997 0-3 1.4895781-3 3.2988281 0 1.94956 2 5.6992188 2 5.6992188h2s2-3.7516119 2-5.7011719c0-1.80922-.9997-3.2988281-3-3.2988281zm0 1c1.33353 0 2 1.1592363 2 2.5664062 0 1.5163301-1.3339844 4.4335938-1.3339844 4.4335938h-1.3320312s-1.3339844-2.9172736-1.3339844-4.4335938c0-1.4071999.66687-2.5644531 2-2.5644531zm-1 9v1a.99998522.99998522 0 0 0 1 1 .99998522.99998522 0 0 0 1-1v-1h-1z" fill="#4d4d4d"/></svg>

<svg xmlns="http://www.w3.org/2000/svg" viewBox="0 0 16 16">
  <defs id="defs3051">
    <style type="text/css" id="current-color-scheme">
      .ColorScheme-Text {
        color:#4d4d4d;
      }
      </style>
  </defs>
 <path style="fill:currentColor;fill-opacity:1;stroke:none" 
     d="M 8 2 L 8 2.0019531 C 6.0003 2.0019531 5 3.4915312 5 5.3007812 C 5 7.2503412 7 11 7 11 L 9 11 C 9 11 11 7.2483881 11 5.2988281 C 11 3.4896081 10.0003 2 8 2 z M 8 3 C 9.33353 3 10 4.1592363 10 5.5664062 C 10 7.0827363 8.6660156 10 8.6660156 10 L 7.3339844 10 C 7.3339844 10 6 7.0827264 6 5.5664062 C 6 4.1592063 6.66687 3.0019531 8 3.0019531 L 8 3 z M 7 12 L 7 13 A 0.99998522 0.99998522 0 0 0 8 14 A 0.99998522 0.99998522 0 0 0 9 13 L 9 12 L 8 12 L 7 12 z "
     class="ColorScheme-Text"
     />
</svg>
